resources/images/orca_bed_pct_left.svg

<?xml version="1.0" encoding="UTF-8" standalone="no"?>
<svg
   width="24"
   height="302"
   viewBox="0 0 24 302"
   fill="none"
   version="1.1"
   id="svg14"
   xmlns="http://www.w3.org/2000/svg"
   xmlns:svg="http://www.w3.org/2000/svg">
  <defs
     id="defs14" />
  <path
     d="M 0.36895847,8.2161586 H 20.495973 V 1.5286532 H 20.6431 l 2.53059,1.265626 V 18.028666 H 23.026563 L 20.495973,16.76304 V 11.341161 H 1.6931042 L 0.36895847,8.3724087 Z"
     id="text18"
     style="font-weight:bold;font-size:31.0518px;font-family:'Nova Square';-inkscape-font-specification:'Nova Square Bold';writing-mode:tb-rl;fill:#b3b3b3;fill-rule:evenodd;stroke-width:13.8763;stroke-miterlimit:3.6"
     aria-label="T" />
  <path
     d="m 0.95746767,22.325545 q 0,-4.687504 4.41381913,-4.687504 h 7.3563652 q 4.413819,0 4.413819,4.687504 v 3.593752 q 0,4.687505 -4.413819,4.687505 H 11.947877 L 4.812203,20.809918 q -1.2064438,0.218751 -1.2064438,1.515627 v 3.593752 q 0,1.562501 1.7655276,1.562501 h 0.7797747 l 1.3241457,2.968754 v 0.15625 H 5.3712868 q -4.41381913,0 -4.41381913,-4.687505 z m 6.92969593,-1.562502 5.0906044,6.70313 q 1.515411,-0.09375 1.515411,-1.546876 v -3.593752 q 0,-1.562502 -1.765527,-1.562502 z"
     id="text17"
     style="font-weight:bold;font-size:31.0518px;font-family:'Nova Square';-inkscape-font-specification:'Nova Square Bold';writing-mode:tb-rl;fill:#b3b3b3;fill-rule:evenodd;stroke-width:13.8763;stroke-miterlimit:3.6"
     aria-label="e" />
  <path
     d="m 0.36895847,36.606806 v -0.156251 l 1.20644393,-2.718752 7.474067,4.843754 7.4593546,-4.843754 1.221156,2.734377 v 0.156251 l -6.282336,3.796877 6.282336,3.781253 v 0.15625 l -1.221156,2.734377 -7.4593546,-4.843753 -7.474067,4.843753 -1.20644393,-2.718752 v -0.15625 L 6.666007,40.419308 Z"
     id="text16"
     style="font-weight:bold;font-size:31.0518px;font-family:'Nova Square';-inkscape-font-specification:'Nova Square Bold';writing-mode:tb-rl;fill:#b3b3b3;fill-rule:evenodd;stroke-width:13.8763;stroke-miterlimit:3.6"
     aria-label="x" />
  <path
     d="M 0.36895847,52.747446 H 14.463754 v -4.015628 h 0.147128 l 2.530589,1.265626 v 2.750002 h 5.296583 l 1.324146,2.968752 v 0.15625 h -6.620729 v 4.015628 H 16.994343 L 14.463754,58.62245 V 55.872448 H 1.6931042 L 0.36895847,52.903696 Z"
     id="text15"
     style="font-weight:bold;font-size:31.0518px;font-family:'Nova Square';-inkscape-font-specification:'Nova Square Bold';writing-mode:tb-rl;fill:#b3b3b3;fill-rule:evenodd;stroke-width:13.8763;stroke-miterlimit:3.6"
     aria-label="t" />
  <path
     d="m 0.95746767,67.309956 q 0,-4.687505 4.41381913,-4.687505 H 16.405834 l 1.324146,2.968752 v 0.15625 H 5.3712868 q -1.7655276,0 -1.7655276,1.562503 v 3.593752 q 0,1.562501 1.7655276,1.562501 H 16.405834 l 1.324146,2.968753 v 0.15625 H 5.3712868 q -4.41381913,0 -4.41381913,-4.687504 z"
     id="text14"
     style="font-weight:bold;font-size:31.0518px;font-family:'Nova Square';-inkscape-font-specification:'Nova Square Bold';writing-mode:tb-rl;fill:#b3b3b3;fill-rule:evenodd;stroke-width:13.8763;stroke-miterlimit:3.6"
     aria-label="u" />
  <path
     d="M 0.36895847,80.278718 H 12.727652 q 4.413819,0 4.413819,4.687504 v 3.906253 h -0.147128 l -2.501164,-1.250001 v -2.656252 q 0,-1.562501 -1.765527,-1.562501 H 1.6931042 L 0.36895847,80.434968 Z"
     id="text13"
     style="font-weight:bold;font-size:31.0518px;font-family:'Nova Square';-inkscape-font-specification:'Nova Square Bold';writing-mode:tb-rl;fill:#b3b3b3;fill-rule:evenodd;stroke-width:13.8763;stroke-miterlimit:3.6"
     aria-label="r" />
  <path
     d="m 0.95746767,96.216231 q 0,-4.687503 4.41381913,-4.687503 h 7.3563652 q 4.413819,0 4.413819,4.687503 v 3.593753 q 0,4.687506 -4.413819,4.687506 H 11.947877 L 4.812203,94.700605 q -1.2064438,0.21875 -1.2064438,1.515626 v 3.593753 q 0,1.562506 1.7655276,1.562506 h 0.7797747 l 1.3241457,2.96875 v 0.15625 H 5.3712868 q -4.41381913,0 -4.41381913,-4.687506 z m 6.92969593,-1.562501 5.0906044,6.70313 q 1.515411,-0.0937 1.515411,-1.546876 v -3.593753 q 0,-1.562501 -1.765527,-1.562501 z"
     id="text12"
     style="font-weight:bold;font-size:31.0518px;font-family:'Nova Square';-inkscape-font-specification:'Nova Square Bold';writing-mode:tb-rl;fill:#b3b3b3;fill-rule:evenodd;stroke-width:13.8763;stroke-miterlimit:3.6"
     aria-label="e" />
  <path
     d="m 0.95746767,113.87248 q 0,-4.6875 4.41381913,-4.6875 h 7.3563652 q 4.413819,0 4.413819,4.6875 v 3.59376 q 0,1.0625 -0.456095,1.5625 h 5.752678 l 1.324146,2.96875 v 0.15625 H 5.3712868 q -4.41381913,0 -4.41381913,-4.6875 z m 2.64829153,0 v 3.59376 q 0,1.5625 1.7655276,1.5625 h 7.3563652 q 1.765527,0 1.765527,-1.5625 v -3.59376 q 0,-1.5625 -1.765527,-1.5625 H 5.3712868 q -1.7655276,0 -1.7655276,1.5625 z"
     id="text11"
     style="font-weight:bold;font-size:31.0518px;font-family:'Nova Square';-inkscape-font-specification:'Nova Square Bold';writing-mode:tb-rl;fill:#b3b3b3;fill-rule:evenodd;stroke-width:13.8763;stroke-miterlimit:3.6"
     aria-label="d" />
  <path
     d="m 0.95746767,146.37253 q 0,-5.46876 5.14945553,-5.46876 H 18.024235 q 5.149455,0 5.149455,5.46876 v 4.84376 q 0,5.46875 -5.149455,5.46875 h -1.618401 l -1.324145,-2.96875 v -0.15625 h 2.942546 q 2.501164,0 2.501164,-2.34375 v -4.84376 q 0,-2.34376 -2.501164,-2.34376 H 6.1069232 q -2.501164,0 -2.501164,2.34376 v 4.84376 q 0,2.34375 2.501164,2.34375 h 1.6184004 l 1.3241458,2.96875 v 0.15625 H 6.1069232 q -5.14945553,0 -5.14945553,-5.46875 z"
     id="text10"
     style="font-weight:bold;font-size:31.0518px;font-family:'Nova Square';-inkscape-font-specification:'Nova Square Bold';writing-mode:tb-rl;fill:#b3b3b3;fill-rule:evenodd;stroke-width:13.8763;stroke-miterlimit:3.6"
     aria-label="C" />
  <path
     d="m 3.6057592,166.84129 v 3.59376 q 0,1.5625 1.7655276,1.5625 h 7.3563652 q 1.765527,0 1.765527,-1.5625 v -3.59376 q 0,-1.5625 -1.765527,-1.5625 H 5.3712868 q -1.7655276,0 -1.7655276,1.5625 z m -2.64829153,0 q 0,-4.6875 4.41381913,-4.6875 h 7.3563652 q 4.413819,0 4.413819,4.6875 v 3.59376 q 0,4.6875 -4.413819,4.6875 H 5.3712868 q -4.41381913,0 -4.41381913,-4.6875 z"
     id="text9"
     style="font-weight:bold;font-size:31.0518px;font-family:'Nova Square';-inkscape-font-specification:'Nova Square Bold';writing-mode:tb-rl;fill:#b3b3b3;fill-rule:evenodd;stroke-width:13.8763;stroke-miterlimit:3.6"
     aria-label="o" />
  <path
     d="m 3.6057592,184.49756 v 3.59375 q 0,1.5625 1.7655276,1.5625 h 7.3563652 q 1.765527,0 1.765527,-1.5625 v -3.59375 q 0,-1.5625 -1.765527,-1.5625 H 5.3712868 q -1.7655276,0 -1.7655276,1.5625 z m -2.64829153,0 q 0,-4.68751 4.41381913,-4.68751 h 7.3563652 q 4.413819,0 4.413819,4.68751 v 3.59375 q 0,4.6875 -4.413819,4.6875 H 5.3712868 q -4.41381913,0 -4.41381913,-4.6875 z"
     id="text8"
     style="font-weight:bold;font-size:31.0518px;font-family:'Nova Square';-inkscape-font-specification:'Nova Square Bold';writing-mode:tb-rl;fill:#b3b3b3;fill-rule:evenodd;stroke-width:13.8763;stroke-miterlimit:3.6"
     aria-label="o" />
  <path
     d="M 0.36895847,198.24757 H 22.438054 l 1.324146,2.96875 v 0.15625 H 1.6931042 l -1.32414573,-2.96875 z"
     id="text7"
     style="font-weight:bold;font-size:31.0518px;font-family:'Nova Square';-inkscape-font-specification:'Nova Square Bold';writing-mode:tb-rl;fill:#b3b3b3;fill-rule:evenodd;stroke-width:13.8763;stroke-miterlimit:3.6"
     aria-label="l" />
  <path
     d="M 0.36895847,220.12259 H 22.438054 l 0.735636,1.65625 v 8.34375 q 0,5.46876 -5.149455,5.46876 h -4.413819 q -5.1494559,0 -5.1494559,-5.46876 v -6.875 H 1.6931042 l -1.32414573,-2.96875 z m 20.15644053,3.125 h -9.416147 v 6.875 q 0,2.34376 2.501164,2.34376 h 4.413819 q 2.501164,0 2.501164,-2.34376 z"
     id="text6"
     style="font-weight:bold;font-size:31.0518px;font-family:'Nova Square';-inkscape-font-specification:'Nova Square Bold';writing-mode:tb-rl;fill:#b3b3b3;fill-rule:evenodd;stroke-width:13.8763;stroke-miterlimit:3.6"
     aria-label="P" />
  <path
     d="M 0.36895847,241.0601 H 22.438054 l 1.324146,2.96875 v 0.15625 H 1.6931042 l -1.32414573,-2.96875 z"
     id="text5"
     style="font-weight:bold;font-size:31.0518px;font-family:'Nova Square';-inkscape-font-specification:'Nova Square Bold';writing-mode:tb-rl;fill:#b3b3b3;fill-rule:evenodd;stroke-width:13.8763;stroke-miterlimit:3.6"
     aria-label="l" />
  <path
     d="m 3.6057592,253.5601 v 3.28125 q 0,1.5625 1.7655276,1.5625 h 2.0156441 q 1.7655275,0 1.7655275,-1.5625 v -3.28125 q 0,-1.5625 -1.7655275,-1.5625 H 5.3712868 q -1.7655276,0 -1.7655276,1.5625 z m -2.64829153,0 q 0,-4.6875 4.41381913,-4.6875 h 2.0156441 q 4.4138191,0 4.4138191,4.6875 v 3.28125 q 0,0.81251 -0.441382,1.5625 h 1.368284 q 1.765527,0 1.765527,-1.5625 v -5.59375 h 0.147128 l 2.501164,1.25 v 4.34375 q 0,4.68751 -4.413819,4.68751 H 1.6931042 L 0.36895847,258.5601 v -0.15625 H 1.3988496 q -0.44138193,-0.59374 -0.44138193,-1.5625 z"
     id="text4"
     style="font-weight:bold;font-size:31.0518px;font-family:'Nova Square';-inkscape-font-specification:'Nova Square Bold';writing-mode:tb-rl;fill:#b3b3b3;fill-rule:evenodd;stroke-width:13.8763;stroke-miterlimit:3.6"
     aria-label="a" />
  <path
     d="M 0.36895847,268.27887 H 14.463754 v -4.01563 h 0.147128 l 2.530589,1.26562 v 2.75001 h 5.296583 l 1.324146,2.96875 v 0.15625 h -6.620729 v 4.01562 h -0.147128 l -2.530589,-1.26562 v -2.75 H 1.6931042 l -1.32414573,-2.96875 z"
     id="text3"
     style="font-weight:bold;font-size:31.0518px;font-family:'Nova Square';-inkscape-font-specification:'Nova Square Bold';writing-mode:tb-rl;fill:#b3b3b3;fill-rule:evenodd;stroke-width:13.8763;stroke-miterlimit:3.6"
     aria-label="t" />
  <path
     d="m 0.95746767,282.84136 q 0,-4.6875 4.41381913,-4.6875 h 7.3563652 q 4.413819,0 4.413819,4.6875 v 3.59376 q 0,4.6875 -4.413819,4.6875 h -0.779775 l -7.135674,-9.79688 q -1.2064438,0.21875 -1.2064438,1.51562 v 3.59376 q 0,1.5625 1.7655276,1.5625 h 0.7797747 l 1.3241457,2.96875 v 0.15625 H 5.3712868 q -4.41381913,0 -4.41381913,-4.6875 z m 6.92969593,-1.5625 5.0906044,6.70314 q 1.515411,-0.0938 1.515411,-1.54688 v -3.59376 q 0,-1.5625 -1.765527,-1.5625 z"
     id="text2"
     style="font-weight:bold;font-size:31.0518px;font-family:'Nova Square';-inkscape-font-specification:'Nova Square Bold';writing-mode:tb-rl;fill:#b3b3b3;fill-rule:evenodd;stroke-width:13.8763;stroke-miterlimit:3.6"
     aria-label="e" />
</svg>

<svg width="24" height="302" viewBox="0 0 24 302" fill="none" xmlns="http://www.w3.org/2000/svg">
<path fill-rule="evenodd" clip-rule="evenodd" d="M0.369141 8.21583H20.4962V1.52832H20.6433L23.1739 2.79395V18.0283H23.0267L20.4962 16.7627V11.3408H1.69329L0.369141 8.37208V8.21583Z" fill="#B3B3B3"/>
<path fill-rule="evenodd" clip-rule="evenodd" d="M0.95752 22.3252C0.95752 19.2002 2.42879 17.6377 5.37134 17.6377H12.7277C15.6702 17.6377 17.1415 19.2002 17.1415 22.3252V25.919C17.1415 29.044 15.6702 30.6065 12.7277 30.6065H11.9479L4.81225 20.8096C4.00796 20.9554 3.60581 21.4606 3.60581 22.3252V25.919C3.60581 26.9606 4.19432 27.4815 5.37134 27.4815H6.15111L7.47526 30.4502V30.6065H5.37134C2.42879 30.6065 0.95752 29.044 0.95752 25.919V22.3252ZM7.88722 20.7627L12.9778 27.4658C13.9881 27.4033 14.4932 26.8877 14.4932 25.919V22.3252C14.4932 21.2835 13.9047 20.7627 12.7277 20.7627H7.88722Z" fill="#B3B3B3"/>
<path fill-rule="evenodd" clip-rule="evenodd" d="M0.369141 36.6064V36.4502L1.57558 33.7314L9.04965 38.5752L16.509 33.7314L17.7302 36.4658V36.6221L11.4478 40.4189L17.7302 44.2002V44.3565L16.509 47.0908L9.04965 42.2471L1.57558 47.0908L0.369141 44.3721V44.2158L6.66619 40.4189L0.369141 36.6064Z" fill="#B3B3B3"/>
<path fill-rule="evenodd" clip-rule="evenodd" d="M0.369141 52.7471H14.4639V48.7314H14.6111L17.1417 49.9971V52.7471H22.4382L23.7624 55.7158V55.8721H17.1417V59.8877H16.9945L14.4639 58.6221V55.8721H1.69329L0.369141 52.9033V52.7471Z" fill="#B3B3B3"/>
<path fill-rule="evenodd" clip-rule="evenodd" d="M0.95752 67.3096C0.95752 64.1846 2.42879 62.6221 5.37134 62.6221H16.4059L17.73 65.5908V65.7471H5.37134C4.19432 65.7471 3.60581 66.2679 3.60581 67.3096V70.9033C3.60581 71.945 4.19432 72.4658 5.37134 72.4658H16.4059L17.73 75.4346V75.5908H5.37134C2.42879 75.5908 0.95752 74.0283 0.95752 70.9033V67.3096Z" fill="#B3B3B3"/>
<path fill-rule="evenodd" clip-rule="evenodd" d="M0.369141 80.2783H12.7278C15.6704 80.2783 17.1417 81.8408 17.1417 84.9658V88.8721H16.9945L14.4934 87.6221V84.9658C14.4934 83.9242 13.9049 83.4033 12.7278 83.4033H1.69329L0.369141 80.4346V80.2783Z" fill="#B3B3B3"/>
<path fill-rule="evenodd" clip-rule="evenodd" d="M0.95752 96.2158C0.95752 93.0908 2.42879 91.5283 5.37134 91.5283H12.7277C15.6702 91.5283 17.1415 93.0908 17.1415 96.2158V99.8096C17.1415 102.935 15.6702 104.497 12.7277 104.497H11.9479L4.81225 94.7002C4.00796 94.846 3.60581 95.3512 3.60581 96.2158V99.8096C3.60581 100.851 4.19432 101.372 5.37134 101.372H6.15111L7.47526 104.341V104.497H5.37134C2.42879 104.497 0.95752 102.935 0.95752 99.8096V96.2158ZM7.88722 94.6533L12.9778 101.356C13.9881 101.294 14.4932 100.778 14.4932 99.8096V96.2158C14.4932 95.1742 13.9047 94.6533 12.7277 94.6533H7.88722Z" fill="#B3B3B3"/>
<path fill-rule="evenodd" clip-rule="evenodd" d="M0.95752 113.872C0.95752 110.747 2.42879 109.185 5.37134 109.185H12.7277C15.6702 109.185 17.1415 110.747 17.1415 113.872V117.466C17.1415 118.174 16.9895 118.695 16.6854 119.028H22.4381L23.7623 121.997V122.153H5.37134C2.42879 122.153 0.95752 120.591 0.95752 117.466V113.872ZM3.60581 113.872V117.466C3.60581 118.507 4.19432 119.028 5.37134 119.028H12.7277C13.9047 119.028 14.4932 118.507 14.4932 117.466V113.872C14.4932 112.83 13.9047 112.31 12.7277 112.31H5.37134C4.19432 112.31 3.60581 112.83 3.60581 113.872Z" fill="#B3B3B3"/>
<path fill-rule="evenodd" clip-rule="evenodd" d="M0.95752 146.372C0.95752 142.726 2.674 140.903 6.10698 140.903H18.0243C21.4573 140.903 23.1737 142.726 23.1737 146.372V151.216C23.1737 154.862 21.4573 156.685 18.0243 156.685H16.4059L15.0817 153.716V153.56H18.0243C19.6917 153.56 20.5254 152.778 20.5254 151.216V146.372C20.5254 144.81 19.6917 144.028 18.0243 144.028H6.10698C4.43953 144.028 3.60581 144.81 3.60581 146.372V151.216C3.60581 152.778 4.43953 153.56 6.10698 153.56H7.72538L9.04952 156.528V156.685H6.10698C2.674 156.685 0.95752 154.862 0.95752 151.216V146.372Z" fill="#B3B3B3"/>
<path fill-rule="evenodd" clip-rule="evenodd" d="M3.60581 166.841V170.435C3.60581 171.476 4.19432 171.997 5.37134 171.997H12.7277C13.9047 171.997 14.4932 171.476 14.4932 170.435V166.841C14.4932 165.799 13.9047 165.278 12.7277 165.278H5.37134C4.19432 165.278 3.60581 165.799 3.60581 166.841ZM0.95752 166.841C0.95752 163.716 2.42879 162.153 5.37134 162.153H12.7277C15.6702 162.153 17.1415 163.716 17.1415 166.841V170.435C17.1415 173.56 15.6702 175.122 12.7277 175.122H5.37134C2.42879 175.122 0.95752 173.56 0.95752 170.435V166.841Z" fill="#B3B3B3"/>
<path fill-rule="evenodd" clip-rule="evenodd" d="M3.60581 184.497V188.091C3.60581 189.133 4.19432 189.653 5.37134 189.653H12.7277C13.9047 189.653 14.4932 189.133 14.4932 188.091V184.497C14.4932 183.455 13.9047 182.935 12.7277 182.935H5.37134C4.19432 182.935 3.60581 183.455 3.60581 184.497ZM0.95752 184.497C0.95752 181.372 2.42879 179.81 5.37134 179.81H12.7277C15.6702 179.81 17.1415 181.372 17.1415 184.497V188.091C17.1415 191.216 15.6702 192.778 12.7277 192.778H5.37134C2.42879 192.778 0.95752 191.216 0.95752 188.091V184.497Z" fill="#B3B3B3"/>
<path fill-rule="evenodd" clip-rule="evenodd" d="M0.369141 198.248H22.4382L23.7624 201.217V201.373H1.69329L0.369141 198.404V198.248Z" fill="#B3B3B3"/>
<path fill-rule="evenodd" clip-rule="evenodd" d="M0.369141 220.123H22.4382L23.1739 221.779V230.123C23.1739 233.769 21.4574 235.592 18.0244 235.592H13.6106C10.1776 235.592 8.46114 233.769 8.46114 230.123V223.248H1.69329L0.369141 220.279V220.123ZM20.5256 223.248H11.1094V230.123C11.1094 231.686 11.9432 232.467 13.6106 232.467H18.0244C19.6919 232.467 20.5256 231.686 20.5256 230.123V223.248Z" fill="#B3B3B3"/>
<path fill-rule="evenodd" clip-rule="evenodd" d="M0.369141 241.061H22.4382L23.7624 244.029V244.186H1.69329L0.369141 241.217V241.061Z" fill="#B3B3B3"/>
<path fill-rule="evenodd" clip-rule="evenodd" d="M3.60594 253.561V256.842C3.60594 257.883 4.19445 258.404 5.37147 258.404H7.38711C8.56413 258.404 9.15264 257.883 9.15264 256.842V253.561C9.15264 252.519 8.56413 251.998 7.38711 251.998H5.37147C4.19445 251.998 3.60594 252.519 3.60594 253.561ZM0.95765 253.561C0.95765 250.436 2.42892 248.873 5.37147 248.873H7.38711C10.3297 248.873 11.8009 250.436 11.8009 253.561V256.842C11.8009 257.383 11.6538 257.904 11.3596 258.404H12.7278C13.9049 258.404 14.4934 257.883 14.4934 256.842V251.248H14.6405L17.1417 252.498V256.842C17.1417 259.967 15.6704 261.529 12.7278 261.529H1.69329L0.369141 258.561V258.404H1.39903C1.10478 258.008 0.95765 257.488 0.95765 256.842V253.561Z" fill="#B3B3B3"/>
<path fill-rule="evenodd" clip-rule="evenodd" d="M0.369141 268.279H14.4639V264.264H14.6111L17.1417 265.529V268.279H22.4382L23.7624 271.248V271.404H17.1417V275.42H16.9945L14.4639 274.154V271.404H1.69329L0.369141 268.436V268.279Z" fill="#B3B3B3"/>
<path fill-rule="evenodd" clip-rule="evenodd" d="M0.95752 282.842C0.95752 279.717 2.42879 278.154 5.37134 278.154H12.7277C15.6702 278.154 17.1415 279.717 17.1415 282.842V286.436C17.1415 289.561 15.6702 291.123 12.7277 291.123H11.9479L4.81225 281.326C4.00796 281.472 3.60581 281.977 3.60581 282.842V286.436C3.60581 287.477 4.19432 287.998 5.37134 287.998H6.15111L7.47526 290.967V291.123H5.37134C2.42879 291.123 0.95752 289.561 0.95752 286.436V282.842ZM7.88722 281.279L12.9778 287.982C13.9881 287.92 14.4932 287.404 14.4932 286.436V282.842C14.4932 281.8 13.9047 281.279 12.7277 281.279H7.88722Z" fill="#B3B3B3"/>
</svg>
